X: 33155
T: Princess Royal, The
R: reel
M: 4/4
K: Adorian
|:ed|c2 Bc A2 e=f|edcB A2 (3e=fg|f2 d2 d2 (3efg|edcB c2 BA|
B2 g2 B2 AG|ABAG E2 ed|c2 (3ABc BAGB|A2 AG A2:|
|:cd|eaa^g a3 b|a=ged e3d|(3efg fa gfge|dcBA G2 (3GAB|
c2 (3ABc d2 (3B^cd|efge a2 ag|f2 A2 f2 gf|e2 A2 d2 ed|
c2 Bc ABcd|e2 E2 E2 ed|c2 (3ABc BAGB|A2 AG A2:|

